Fabrication/WordClock_LED_template.svg

<?xml version="1.0" encoding="UTF-8" standalone="no"?>
<svg
   version="1.1"
   x="0"
   y="0"
   width="970.62531"
   height="970.62402"
   viewBox="0 0 727.96898 727.96802"
   id="svg1522"
   sodipodi:docname="WordClock_LED_template_final.svg"
   inkscape:version="1.1 (c68e22c387, 2021-05-23)"
   xmlns:inkscape="http://www.inkscape.org/namespaces/inkscape"
   xmlns:sodipodi="http://sodipodi.sourceforge.net/DTD/sodipodi-0.dtd"
   xmlns="http://www.w3.org/2000/svg"
   xmlns:svg="http://www.w3.org/2000/svg">
  <defs
     id="defs1526" />
  <sodipodi:namedview
     id="namedview1524"
     pagecolor="#ffffff"
     bordercolor="#666666"
     borderopacity="1.0"
     inkscape:pageshadow="2"
     inkscape:pageopacity="0.0"
     inkscape:pagecheckerboard="0"
     showgrid="false"
     inkscape:document-units="in"
     fit-margin-left="50"
     lock-margins="true"
     fit-margin-top="50"
     fit-margin-right="50"
     fit-margin-bottom="50"
     inkscape:zoom="0.25341195"
     inkscape:cx="599.81385"
     inkscape:cy="976.67058"
     inkscape:window-width="1920"
     inkscape:window-height="1051"
     inkscape:window-x="-9"
     inkscape:window-y="-9"
     inkscape:window-maximized="1"
     inkscape:current-layer="svg1522" />
  <g
     id="Layer_1"
     transform="matrix(0.99846777,0,0,0.99847,-72.165422,-56.130224)">
    <path
       d="M 720.48,94.774 V 137 h 42.323 v 567.48 h -41.99 v 42.262 H 475.18 v -47.64 h -85.04 v 47.64 H 152.5 V 704.48 H 110.834 V 672 H 152.5 V 629.48 H 110.834 V 513.911 h 27.493 V 327.219 H 110.834 V 138 H 152.5 l 0.035,-43.207 z m -88.071,552.695 h -15.59 v 15.591 h 15.59 z m -93.543,0 h -15.591 v 15.591 h 15.591 z m -94.874,0 h -15.59 v 15.591 h 15.59 z m -93.63,0 h -15.591 v 15.591 h 15.591 z m -93.48,0 h -15.591 v 15.591 h 15.591 z m -46.835,0 h -15.591 v 15.591 h 15.591 z m 93.543,0 H 288 v 15.591 h 15.59 z m 93.543,0 h -15.59 v 15.591 h 15.59 z m 94.961,0 h -15.59 v 15.591 h 15.59 z m 93.543,0 h -15.59 v 15.591 h 15.59 z m 93.544,0 H 663.59 v 15.591 h 15.591 z m 0,-47.011 H 663.59 v 15.591 h 15.591 z m -93.544,0 h -15.59 v 15.591 h 15.59 z m -93.543,0 h -15.59 v 15.591 h 15.59 z m -94.961,0 h -15.59 v 15.591 h 15.59 z m -93.543,0 H 288 v 15.591 h 15.59 z m -93.543,0 h -15.591 v 15.591 h 15.591 z m 46.835,0 h -15.591 v 15.591 h 15.591 z m 93.48,0 h -15.591 v 15.591 h 15.591 z m 93.63,0 h -15.59 v 15.591 h 15.59 z m 94.874,0 h -15.591 v 15.591 h 15.591 z m 93.543,0 h -15.59 v 15.591 h 15.59 z m 0,-46.889 h -15.59 v 15.591 h 15.59 z m -93.543,0 h -15.591 v 15.591 h 15.591 z m -94.874,0 h -15.59 v 15.591 h 15.59 z m -93.63,0 h -15.591 v 15.591 h 15.591 z m -93.48,0 h -15.591 v 15.591 h 15.591 z m -46.835,0 h -15.591 v 15.591 h 15.591 z m 93.543,0 H 288 v 15.591 h 15.59 z m 93.543,0 h -15.59 v 15.591 h 15.59 z m 94.961,0 h -15.59 v 15.591 h 15.59 z m 93.543,0 h -15.59 v 15.591 h 15.59 z m 93.544,0 H 663.59 v 15.591 h 15.591 z m 0,-46.889 H 663.59 v 15.591 h 15.591 z m -93.544,0 h -15.59 v 15.591 h 15.59 z m -93.543,0 h -15.59 v 15.591 h 15.59 z m -94.961,0 h -15.59 v 15.591 h 15.59 z m -93.543,0 H 288 v 15.591 h 15.59 z m -93.543,0 h -15.59 v 15.591 h 15.59 z m 46.835,0 h -15.591 v 15.591 h 15.591 z m 93.48,0 h -15.591 v 15.591 h 15.591 z m 93.63,0 h -15.59 v 15.591 h 15.59 z m 94.874,0 h -15.591 v 15.591 h 15.591 z m 93.543,0 h -15.59 v 15.591 h 15.59 z m 0,-46.889 h -15.59 v 15.591 h 15.59 z m -93.543,0 h -15.591 v 15.591 h 15.591 z m -94.874,0 h -15.59 v 15.591 h 15.59 z m -93.63,0 h -15.591 v 15.591 h 15.591 z m -93.48,0 h -15.591 v 15.591 h 15.591 z m -46.835,0 h -15.59 v 15.591 h 15.59 z m 93.543,0 H 288 v 15.591 h 15.59 z m 93.543,0 h -15.59 v 15.591 h 15.59 z m 94.961,0 h -15.59 v 15.591 h 15.59 z m 93.543,0 h -15.59 v 15.591 h 15.59 z m 93.544,0 H 663.59 v 15.591 h 15.591 z m 0,-46.889 H 663.59 v 15.591 h 15.591 z m -93.544,0 h -15.59 v 15.591 h 15.59 z m -93.543,0 h -15.59 v 15.591 h 15.59 z m -94.961,0 h -15.59 v 15.591 h 15.59 z m -93.543,0 H 288 v 15.591 h 15.59 z m -93.543,0 h -15.59 v 15.591 h 15.59 z m 46.835,0 h -15.591 v 15.591 h 15.591 z m 93.48,0 h -15.591 v 15.591 h 15.591 z m 93.63,0 h -15.59 v 15.591 h 15.59 z m 94.874,0 h -15.591 v 15.591 h 15.591 z m 93.543,0 h -15.59 v 15.591 h 15.59 z m 46.772,-46.889 H 663.59 v 15.591 h 15.591 z m -93.544,0 h -15.59 v 15.591 h 15.59 z m -93.543,0 h -15.59 v 15.591 h 15.59 z m -94.961,0 h -15.59 v 15.591 h 15.59 z m -93.543,0 H 288 v 15.591 h 15.59 z m -93.543,0 h -15.59 v 15.591 h 15.59 z m 46.835,0 h -15.591 v 15.591 h 15.591 z m 93.48,0 h -15.591 v 15.591 h 15.591 z m 93.63,0 h -15.59 v 15.591 h 15.59 z m 94.874,0 h -15.591 v 15.591 h 15.591 z m 93.543,0 h -15.59 v 15.591 h 15.59 z m 0,-46.889 h -15.59 v 15.591 h 15.59 z m -93.543,0 h -15.591 v 15.591 h 15.591 z m -94.874,0 h -15.59 v 15.591 h 15.59 z m -93.63,0 h -15.591 v 15.591 h 15.591 z m -93.48,0 h -15.591 v 15.591 h 15.591 z m -46.835,0 h -15.59 v 15.591 h 15.59 z m 93.543,0 H 288 v 15.591 h 15.59 z m 93.543,0 h -15.59 v 15.591 h 15.59 z m 94.961,0 h -15.59 v 15.591 h 15.59 z m 93.543,0 h -15.59 v 15.591 h 15.59 z m 93.544,0 H 663.59 v 15.591 h 15.591 z m 0,-46.889 H 663.59 v 15.59 h 15.591 z m -93.544,0 h -15.59 v 15.59 h 15.59 z m -93.543,0 h -15.59 v 15.59 h 15.59 z m -94.961,0 h -15.59 v 15.59 h 15.59 z m -93.543,0 H 288 v 15.59 h 15.59 z m -93.543,0 h -15.59 v 15.59 h 15.59 z m 46.835,0 h -15.591 v 15.59 h 15.591 z m 93.48,0 h -15.591 v 15.59 h 15.591 z m 93.63,0 h -15.59 v 15.59 h 15.59 z m 94.874,0 h -15.591 v 15.59 h 15.591 z m 93.543,0 h -15.59 v 15.59 h 15.59 z m 0,-46.889 h -15.59 v 15.59 h 15.59 z m -93.543,0 h -15.591 v 15.59 h 15.591 z m -94.874,0 h -15.59 v 15.59 h 15.59 z m -93.63,0 h -15.591 v 15.59 h 15.591 z m -93.48,0 h -15.591 v 15.59 h 15.591 z m -46.835,0 h -15.59 v 15.59 h 15.59 z m 93.543,0 H 288 v 15.59 h 15.59 z m 93.543,0 h -15.59 v 15.59 h 15.59 z m 94.961,0 h -15.59 v 15.59 h 15.59 z m 93.543,0 h -15.59 v 15.59 h 15.59 z m 93.544,0 H 663.59 v 15.59 h 15.591 z m -46.772,-46.889 h -15.59 v 15.59 h 15.59 z m -93.543,0 h -15.591 v 15.59 h 15.591 z m -94.874,0 h -15.59 v 15.59 h 15.59 z m -93.63,0 h -15.591 v 15.59 h 15.591 z m -93.48,0 h -15.591 v 15.59 h 15.591 z m -46.835,0 h -15.59 v 15.59 h 15.59 z m 93.543,0 H 288 v 15.59 h 15.59 z m 93.543,0 h -15.59 v 15.59 h 15.59 z m 94.961,0 h -15.59 v 15.59 h 15.59 z m 93.543,0 h -15.59 v 15.59 h 15.59 z m 93.544,0 H 663.59 v 15.59 h 15.591 z"
       fill-opacity="0"
       stroke="#ff0000"
       stroke-width="1"
       id="path1519" />
  </g>
</svg>

<?xml version="1.0" encoding="UTF-8"?>
<!DOCTYPE svg PUBLIC "-//W3C//DTD SVG 1.1//EN" "http://www.w3.org/Graphics/SVG/1.1/DTD/svg11.dtd">
<svg version="1.1" xmlns="http://www.w3.org/2000/svg" xmlns:xlink="http://www.w3.org/1999/xlink" x="0" y="0" width="850.394" height="850.394" viewBox="0, 0, 850.394, 850.394">
  <g id="Layer_1">
    <path d="M720.48,94.774 L720.48,137 L762.803,137 L762.803,704.48 L720.813,704.48 L720.813,746.742 L475.18,746.742 L475.18,699.102 L390.14,699.102 L390.14,746.742 L152.5,746.742 L152.5,704.48 L110.834,704.48 L110.834,672 L152.5,672 L152.5,629.48 L110.834,629.48 L110.834,513.911 L138.327,513.911 L138.327,327.219 L110.834,327.219 L110.834,138 L152.5,138 L152.535,94.793 L720.48,94.774 z M632.409,647.469 L616.819,647.469 L616.819,663.06 L632.409,663.06 L632.409,647.469 z M538.866,647.469 L523.275,647.469 L523.275,663.06 L538.866,663.06 L538.866,647.469 z M443.992,647.469 L428.402,647.469 L428.402,663.06 L443.992,663.06 L443.992,647.469 z M350.362,647.469 L334.771,647.469 L334.771,663.06 L350.362,663.06 L350.362,647.469 z M256.882,647.469 L241.291,647.469 L241.291,663.06 L256.882,663.06 L256.882,647.469 z M210.047,647.469 L194.456,647.469 L194.456,663.06 L210.047,663.06 L210.047,647.469 z M303.59,647.469 L288,647.469 L288,663.06 L303.59,663.06 L303.59,647.469 z M397.133,647.469 L381.543,647.469 L381.543,663.06 L397.133,663.06 L397.133,647.469 z M492.094,647.469 L476.504,647.469 L476.504,663.06 L492.094,663.06 L492.094,647.469 z M585.637,647.469 L570.047,647.469 L570.047,663.06 L585.637,663.06 L585.637,647.469 z M679.181,647.469 L663.59,647.469 L663.59,663.06 L679.181,663.06 L679.181,647.469 z M679.181,600.458 L663.59,600.458 L663.59,616.049 L679.181,616.049 L679.181,600.458 z M585.637,600.458 L570.047,600.458 L570.047,616.049 L585.637,616.049 L585.637,600.458 z M492.094,600.458 L476.504,600.458 L476.504,616.049 L492.094,616.049 L492.094,600.458 z M397.133,600.458 L381.543,600.458 L381.543,616.049 L397.133,616.049 L397.133,600.458 z M303.59,600.458 L288,600.458 L288,616.049 L303.59,616.049 L303.59,600.458 z M210.047,600.458 L194.456,600.458 L194.456,616.049 L210.047,616.049 L210.047,600.458 z M256.882,600.458 L241.291,600.458 L241.291,616.049 L256.882,616.049 L256.882,600.458 z M350.362,600.458 L334.771,600.458 L334.771,616.049 L350.362,616.049 L350.362,600.458 z M443.992,600.458 L428.402,600.458 L428.402,616.049 L443.992,616.049 L443.992,600.458 z M538.866,600.458 L523.275,600.458 L523.275,616.049 L538.866,616.049 L538.866,600.458 z M632.409,600.458 L616.819,600.458 L616.819,616.049 L632.409,616.049 L632.409,600.458 z M632.409,553.569 L616.819,553.569 L616.819,569.16 L632.409,569.16 L632.409,553.569 z M538.866,553.569 L523.275,553.569 L523.275,569.16 L538.866,569.16 L538.866,553.569 z M443.992,553.569 L428.402,553.569 L428.402,569.16 L443.992,569.16 L443.992,553.569 z M350.362,553.569 L334.771,553.569 L334.771,569.16 L350.362,569.16 L350.362,553.569 z M256.882,553.569 L241.291,553.569 L241.291,569.16 L256.882,569.16 L256.882,553.569 z M210.047,553.569 L194.456,553.569 L194.456,569.16 L210.047,569.16 L210.047,553.569 z M303.59,553.569 L288,553.569 L288,569.16 L303.59,569.16 L303.59,553.569 z M397.133,553.569 L381.543,553.569 L381.543,569.16 L397.133,569.16 L397.133,553.569 z M492.094,553.569 L476.504,553.569 L476.504,569.16 L492.094,569.16 L492.094,553.569 z M585.637,553.569 L570.047,553.569 L570.047,569.16 L585.637,569.16 L585.637,553.569 z M679.181,553.569 L663.59,553.569 L663.59,569.16 L679.181,569.16 L679.181,553.569 z M679.181,506.68 L663.59,506.68 L663.59,522.271 L679.181,522.271 L679.181,506.68 z M585.637,506.68 L570.047,506.68 L570.047,522.271 L585.637,522.271 L585.637,506.68 z M492.094,506.68 L476.504,506.68 L476.504,522.271 L492.094,522.271 L492.094,506.68 z M397.133,506.68 L381.543,506.68 L381.543,522.271 L397.133,522.271 L397.133,506.68 z M303.59,506.68 L288,506.68 L288,522.271 L303.59,522.271 L303.59,506.68 z M210.047,506.68 L194.457,506.68 L194.457,522.271 L210.047,522.271 L210.047,506.68 z M256.882,506.68 L241.291,506.68 L241.291,522.271 L256.882,522.271 L256.882,506.68 z M350.362,506.68 L334.771,506.68 L334.771,522.271 L350.362,522.271 L350.362,506.68 z M443.992,506.68 L428.402,506.68 L428.402,522.271 L443.992,522.271 L443.992,506.68 z M538.866,506.68 L523.275,506.68 L523.275,522.271 L538.866,522.271 L538.866,506.68 z M632.409,506.68 L616.819,506.68 L616.819,522.271 L632.409,522.271 L632.409,506.68 z M632.409,459.791 L616.819,459.791 L616.819,475.382 L632.409,475.382 L632.409,459.791 z M538.866,459.791 L523.275,459.791 L523.275,475.382 L538.866,475.382 L538.866,459.791 z M443.992,459.791 L428.402,459.791 L428.402,475.382 L443.992,475.382 L443.992,459.791 z M350.362,459.791 L334.771,459.791 L334.771,475.382 L350.362,475.382 L350.362,459.791 z M256.882,459.791 L241.291,459.791 L241.291,475.382 L256.882,475.382 L256.882,459.791 z M210.047,459.791 L194.457,459.791 L194.457,475.382 L210.047,475.382 L210.047,459.791 z M303.59,459.791 L288,459.791 L288,475.382 L303.59,475.382 L303.59,459.791 z M397.133,459.791 L381.543,459.791 L381.543,475.382 L397.133,475.382 L397.133,459.791 z M492.094,459.791 L476.504,459.791 L476.504,475.382 L492.094,475.382 L492.094,459.791 z M585.637,459.791 L570.047,459.791 L570.047,475.382 L585.637,475.382 L585.637,459.791 z M679.181,459.791 L663.59,459.791 L663.59,475.382 L679.181,475.382 L679.181,459.791 z M679.181,412.902 L663.59,412.902 L663.59,428.493 L679.181,428.493 L679.181,412.902 z M585.637,412.902 L570.047,412.902 L570.047,428.493 L585.637,428.493 L585.637,412.902 z M492.094,412.902 L476.504,412.902 L476.504,428.493 L492.094,428.493 L492.094,412.902 z M397.133,412.902 L381.543,412.902 L381.543,428.493 L397.133,428.493 L397.133,412.902 z M303.59,412.902 L288,412.902 L288,428.493 L303.59,428.493 L303.59,412.902 z M210.047,412.902 L194.457,412.902 L194.457,428.493 L210.047,428.493 L210.047,412.902 z M256.882,412.902 L241.291,412.902 L241.291,428.493 L256.882,428.493 L256.882,412.902 z M350.362,412.902 L334.771,412.902 L334.771,428.493 L350.362,428.493 L350.362,412.902 z M443.992,412.902 L428.402,412.902 L428.402,428.493 L443.992,428.493 L443.992,412.902 z M538.866,412.902 L523.275,412.902 L523.275,428.493 L538.866,428.493 L538.866,412.902 z M632.409,412.902 L616.819,412.902 L616.819,428.493 L632.409,428.493 L632.409,412.902 z M679.181,366.013 L663.59,366.013 L663.59,381.604 L679.181,381.604 L679.181,366.013 z M585.637,366.013 L570.047,366.013 L570.047,381.604 L585.637,381.604 L585.637,366.013 z M492.094,366.013 L476.504,366.013 L476.504,381.604 L492.094,381.604 L492.094,366.013 z M397.133,366.013 L381.543,366.013 L381.543,381.604 L397.133,381.604 L397.133,366.013 z M303.59,366.013 L288,366.013 L288,381.604 L303.59,381.604 L303.59,366.013 z M210.047,366.013 L194.457,366.013 L194.457,381.604 L210.047,381.604 L210.047,366.013 z M256.882,366.013 L241.291,366.013 L241.291,381.604 L256.882,381.604 L256.882,366.013 z M350.362,366.013 L334.771,366.013 L334.771,381.604 L350.362,381.604 L350.362,366.013 z M443.992,366.013 L428.402,366.013 L428.402,381.604 L443.992,381.604 L443.992,366.013 z M538.866,366.013 L523.275,366.013 L523.275,381.604 L538.866,381.604 L538.866,366.013 z M632.409,366.013 L616.819,366.013 L616.819,381.604 L632.409,381.604 L632.409,366.013 z M632.409,319.124 L616.819,319.124 L616.819,334.715 L632.409,334.715 L632.409,319.124 z M538.866,319.124 L523.275,319.124 L523.275,334.715 L538.866,334.715 L538.866,319.124 z M443.992,319.124 L428.402,319.124 L428.402,334.715 L443.992,334.715 L443.992,319.124 z M350.362,319.124 L334.771,319.124 L334.771,334.715 L350.362,334.715 L350.362,319.124 z M256.882,319.124 L241.291,319.124 L241.291,334.715 L256.882,334.715 L256.882,319.124 z M210.047,319.124 L194.457,319.124 L194.457,334.715 L210.047,334.715 L210.047,319.124 z M303.59,319.124 L288,319.124 L288,334.715 L303.59,334.715 L303.59,319.124 z M397.133,319.124 L381.543,319.124 L381.543,334.715 L397.133,334.715 L397.133,319.124 z M492.094,319.124 L476.504,319.124 L476.504,334.715 L492.094,334.715 L492.094,319.124 z M585.637,319.124 L570.047,319.124 L570.047,334.715 L585.637,334.715 L585.637,319.124 z M679.181,319.124 L663.59,319.124 L663.59,334.715 L679.181,334.715 L679.181,319.124 z M679.181,272.235 L663.59,272.235 L663.59,287.825 L679.181,287.825 L679.181,272.235 z M585.637,272.235 L570.047,272.235 L570.047,287.825 L585.637,287.825 L585.637,272.235 z M492.094,272.235 L476.504,272.235 L476.504,287.825 L492.094,287.825 L492.094,272.235 z M397.133,272.235 L381.543,272.235 L381.543,287.825 L397.133,287.825 L397.133,272.235 z M303.59,272.235 L288,272.235 L288,287.825 L303.59,287.825 L303.59,272.235 z M210.047,272.235 L194.457,272.235 L194.457,287.825 L210.047,287.825 L210.047,272.235 z M256.882,272.235 L241.291,272.235 L241.291,287.825 L256.882,287.825 L256.882,272.235 z M350.362,272.235 L334.771,272.235 L334.771,287.825 L350.362,287.825 L350.362,272.235 z M443.992,272.235 L428.402,272.235 L428.402,287.825 L443.992,287.825 L443.992,272.235 z M538.866,272.235 L523.275,272.235 L523.275,287.825 L538.866,287.825 L538.866,272.235 z M632.409,272.235 L616.819,272.235 L616.819,287.825 L632.409,287.825 L632.409,272.235 z M632.409,225.346 L616.819,225.346 L616.819,240.936 L632.409,240.936 L632.409,225.346 z M538.866,225.346 L523.275,225.346 L523.275,240.936 L538.866,240.936 L538.866,225.346 z M443.992,225.346 L428.402,225.346 L428.402,240.936 L443.992,240.936 L443.992,225.346 z M350.362,225.346 L334.771,225.346 L334.771,240.936 L350.362,240.936 L350.362,225.346 z M256.882,225.346 L241.291,225.346 L241.291,240.936 L256.882,240.936 L256.882,225.346 z M210.047,225.346 L194.457,225.346 L194.457,240.936 L210.047,240.936 L210.047,225.346 z M303.59,225.346 L288,225.346 L288,240.936 L303.59,240.936 L303.59,225.346 z M397.133,225.346 L381.543,225.346 L381.543,240.936 L397.133,240.936 L397.133,225.346 z M492.094,225.346 L476.504,225.346 L476.504,240.936 L492.094,240.936 L492.094,225.346 z M585.637,225.346 L570.047,225.346 L570.047,240.936 L585.637,240.936 L585.637,225.346 z M679.181,225.346 L663.59,225.346 L663.59,240.936 L679.181,240.936 L679.181,225.346 z M632.409,178.457 L616.819,178.457 L616.819,194.047 L632.409,194.047 L632.409,178.457 z M538.866,178.457 L523.275,178.457 L523.275,194.047 L538.866,194.047 L538.866,178.457 z M443.992,178.457 L428.402,178.457 L428.402,194.047 L443.992,194.047 L443.992,178.457 z M350.362,178.457 L334.771,178.457 L334.771,194.047 L350.362,194.047 L350.362,178.457 z M256.882,178.457 L241.291,178.457 L241.291,194.047 L256.882,194.047 L256.882,178.457 z M210.047,178.457 L194.457,178.457 L194.457,194.047 L210.047,194.047 L210.047,178.457 z M303.59,178.457 L288,178.457 L288,194.047 L303.59,194.047 L303.59,178.457 z M397.133,178.457 L381.543,178.457 L381.543,194.047 L397.133,194.047 L397.133,178.457 z M492.094,178.457 L476.504,178.457 L476.504,194.047 L492.094,194.047 L492.094,178.457 z M585.637,178.457 L570.047,178.457 L570.047,194.047 L585.637,194.047 L585.637,178.457 z M679.181,178.457 L663.59,178.457 L663.59,194.047 L679.181,194.047 L679.181,178.457 z" fill-opacity="0" stroke="#FF0000" stroke-width="1"/>
  </g>
</svg>
